X: 71
T: 67. DANCE TUNE
B: Sam Bayard, "Hill Country Tunes" 1944 #67
N: Copied from manuscript of Denune Provance, Peachen, PA, Sept 21, 1943.
N: Learned in the mountains behind Peachen and Dunbar.
R: polka, reel
M: 2/4
L: 1/16
Z: 2010 John Chambers <jc:trillian.mit.edu>
K: Bb
F2GF D2F2 | G2F2 d3e | d2c2 G2A2 |1 cBAG F2z2 :| B8 ||[K:=e]
K: F
|: c2dc A2c2 | f2e2e2z2 | g2c2d2e2 |1gfed c2z2 :| f6 z2 |]

%%sep 2 1 500
%%sep 1 1 500

